X:3004
T:Chris Norman's
M:2/2
L:1/8
R:reel
K:G
dB~B2 GEDE|GB~B2 dBGB|A3B AGED|EGAB c2Bc|
dB~B2 GEDE|GB~B2 dBGA|B3A Bdge|dBAB G4:||
||:bg~g2 bg~g2|af~f af~f|bg~g2 bgag|eaag abga|
bg~g2 agef|g3e dBGA|~B3A Bdge|dBAB G4:||


